!!!ONB: MCCC : IJH0448_02 : Extracted Monophonic Melody
!!!COM: Haydn, Joseph
!!!OPR: String Quartet in E-flat major
!!!OMV: 2
!!!SCT: Hob.III:64 ; Op.64 No.6
!!!ODT: 1791///
**kern
*thru
*k[b-e-]
*B-:
*clefF
*M3/4
8B-
8d
8f
8b-
8dd
8ff
=1
2ff
8ee-
8dd
=2
2dd
8cc
8b-
=3
4b-
8a
8g
8f
8e-
=4
8d
8d
8f
8b-
8dd
8ff
=5
4.ff
8ee
8dd
8cc
=6
4.cc
8b-
8a
8e
=7
4g
8f
8e-
8d
8c
=8
8B-
8d
8f
8b-
8dd
8ff
=9
2ff
8ee-
8dd
=10
2dd
8cc
8b-
=11
4b-
8a
8g
8f
8e-
=12
8d
8d
8f
8b-
8dd
8ff
=13
4.ff
8ee
8dd
8cc
=14
4.cc
8b-
8a
8e
=15
4g
4f
4r
=16
8A
8c
8f
8a
8cc
8b-
=17
4ee-
8cc
16.a
32ff
8ff
16.gg
32ff
=18
4.bb-
8bb-
8aa
8ee
=19
8ee
8gg
4ff
4r
=20
8g
8b
8ee-
8dd
8aa-
8gg
=21
8f
8a
8dd
8cc
8gg
8ff
=22
4.ff
8ee-
8dd
8a
=23
4cc
8b-
4.r
=24
8A
8c
8f
8a
8cc
8b-
=25
4ee-
8cc
16.a
32ff
8ff
16.gg
32ff
=26
4.bb-
8bb-
8aa
8ee
=27
8ee
8gg
4ff
4r
=28
8g
8b
8ee-
8dd
8aa-
8gg
=29
8f
8a
8dd
8cc
8gg
8ff
=30
4.ff
8ee-
8dd
8a
=31
4b-
4B-
24d-
24f
24a
24b-
24dd-
24ff
=32
4bb-
8.ff
16ff
8.ddd-
16bb-
=33
4.fff
8fff
16eee-
16ddd-
16ccc
16bb-
=34
8bb-
32aa
32ccc
32bb-
32ddd-
8ccc
16.ccc
32ddd-
8eee-
8aa
=35
8.bb-
16ddd-
8fff
8fff
8fff
8fff
=36
6..fff[
48fff]
16eee-
16ddd-
16ccc
16bb-
16aa-
16gg
16eee-
=37
6..eee-[
48eee-]
16ddd-
16ccc
16bb-
16aa-
16gg-
16ff
16ee-
=38
16ff
16ddd-
16bb-
16gg-
16ff
16ff
16aa-
16dd-
16ee-
16ee-
16gg-
16cc
=39
4dd-
4d-
24f
24a-
24cc
24dd-
24ff
24dd-
=40
4aa-
4a-
24c
24e-
24a-
24cc
24ee-
24gg
=41
4aa-
4a-
24c-
24e-
24a-
24cc-
24ee-
24gg
=42
4aa-
4B-
24d
24f
24b-
24dd
24ff
24aa-
=43
4gg-
4e-
24d
24e-
24g-
24b-
24ee-
24gg-
=44
4bb-
4e
24dd-
24b-
24g
24e
24dd-
24e
=45
24f
24a
24cc
24ff
24aa
24ccc
4fff
24A
24c
24f
24e-
24c
24A
=46
8B-
8d
8f
8b-
8dd
8ff
=47
2ff
8ee-
8dd
=48
2dd
8cc
8b-
=49
4b-
8a
8g
8f
8e-
=50
8d
8d
8f
8b-
8dd
8ff
=51
4.ff
8ee
8dd
8cc
=52
4.cc
8b-
8a
8e
=53
4g
8f
8e-
8d
8c
=54
4B-
2r
=55
6..bb-[
48bb-]
32ccc
32bb-
16aa
16bb-
8ccc
16ff
16ddd
=56
6..ddd[
48ddd]
16ddd
16ggg
16fff
16eee-
16ddd
16ccc
16bb-
=57
4bb-
8aa
8gg
8ff
8ee-
=58
2.dd
=59
8cc
8ee
8gg
8bb-
8ddd
8ccc
=60
8ccc
8ff#
8aa
8gg
8bb-
8ee
=61
4gg
4ff
4r
=62
8A
8c
8f
8a
8cc
8b-
=63
4ee-
8cc
16.a
32ff
8ff
16.gg
32ff
=64
4.bb-
8bb-
8aa
8ee
=65
8ee
8gg
4ff
4r
=66
8g
8b
8ee-
8dd
8aa-
8gg
=67
8f
8a
8dd
8cc
8gg
8ff
=68
4.ff
8ee-
8dd
8a
=69
4cc
4b-
8r
8a-
=70
4a-
8g
8g
8f
8A
=71
2c
8B-
8r
==
*-
